src/images/fourZigzags.svg

<svg width="202" height="202" viewBox="0 0 202 202" fill="none" xmlns="http://www.w3.org/2000/svg">
<path d="M71.2395 13.178L41.4788 42.8765L16.1915 17.5893L7.24463 26.5361L41.4788 60.7702L71.2395 31.0095L101 60.7702L130.761 31.0095L160.522 60.7702L194.756 26.5361L185.809 17.5893L160.522 42.8765L130.761 13.178L101 42.8765L71.2395 13.178Z" fill="white" fill-opacity="0.4"/>
<path d="M71.2395 55.8619L41.4788 85.6226L16.1915 60.2732L7.24463 69.2201L41.4788 103.454L71.2395 73.6935L101 103.454L130.761 73.6935L160.522 103.454L194.756 69.2201L185.809 60.2732L160.522 85.5605L130.761 55.8619L101 85.6226L71.2395 55.8619Z" fill="white" fill-opacity="0.4"/>
<path d="M71.2395 98.5458L41.4788 128.307L16.1915 102.957L7.24463 111.904L41.4788 146.138L71.2395 116.377L101 146.138L130.761 116.377L160.522 146.138L194.756 111.904L185.809 102.957L160.522 128.244L130.761 98.5458L101 128.244L71.2395 98.5458Z" fill="white" fill-opacity="0.4"/>
<path d="M71.2395 141.23L41.4788 170.928L16.1915 145.641L7.24463 154.588L41.4788 188.822L71.2395 159.061L101 188.822L130.761 159.061L160.522 188.822L194.756 154.588L185.809 145.641L160.522 170.928L130.761 141.23L101 170.928L71.2395 141.23Z" fill="white" fill-opacity="0.4"/>
</svg>

<svg xmlns="http://www.w3.org/2000/svg" width="202" height="202" fill="none">
  <path fill="#fff" fill-opacity=".4" d="M71.24 13.178 41.479 42.876 16.192 17.59l-8.947 8.947L41.479 60.77l29.76-29.76L101 60.77l29.761-29.76 29.761 29.76 34.234-34.234-8.947-8.947-25.287 25.288-29.761-29.699L101 42.876 71.24 13.178Z"/>
  <path fill="#fff" fill-opacity=".4" d="m71.24 55.862-29.761 29.76-25.287-25.349-8.947 8.947 34.234 34.234 29.76-29.76L101 103.454l29.761-29.76 29.761 29.76 34.234-34.234-8.947-8.947-25.287 25.288-29.761-29.7L101 85.624 71.24 55.862Z"/>
  <path fill="#fff" fill-opacity=".4" d="m71.24 98.546-29.761 29.761-25.287-25.35-8.947 8.947 34.234 34.234 29.76-29.761L101 146.138l29.761-29.761 29.761 29.761 34.234-34.234-8.947-8.947-25.287 25.287-29.761-29.698L101 128.244 71.24 98.546Z"/>
  <path fill="#fff" fill-opacity=".4" d="m71.24 141.23-29.761 29.698-25.287-25.287-8.947 8.947 34.234 34.234 29.76-29.761L101 188.822l29.761-29.761 29.761 29.761 34.234-34.234-8.947-8.947-25.287 25.287-29.761-29.698L101 170.928 71.24 141.23Z"/>
</svg>
